!!!SOCIAL_FUNCTION: stomp dance songs
!!!PDT:	1943
!!!LING_GROUP: Muskogean
!!!LANG: Non-Tone
Specific Region: Oklahoma, California, Mississippi, Louisiana, Texas, Alabama
!!!REG: Southeast
!!!COM: Anon.
!!!OTL: Stomp Dance Song (h) [First rendition]
!!!ODT: <1933//
!!!MPN: Lapintabeseihoke [Kills it Himself, Sidney Wesley]
!! Song was recorded in January 1933.
!!!AGN: monody
!!!AMT: irregular
!!!RWG: Transcribed pitches, durations, and meters are only approximate.
**kern
*ICvox
*Imale
*clefF4
*k[]
*M2/4
*MM63
*[A,B,B,C]
*>A
=1-
8.c
16A
8A
8A
=2
8.c
16c
8A
8c
=3
8.c
16A
16A
16G
8A
=4
16e
8d
16c
8A
8c
*M5/8
=5
8.c
16A
16A
16G
16A
32r
32A
16.A
32A
*M2/4
=6
8c
8A
16c
8.c
=7
8.c
16A
16A
16G
16A
16r
*>B
=!|:8
16e
8d
16c
8A
16c
16r
=9
8.c
16A
16A
16G
8A
*>C
=:|!10
16e
8d
16c
8A
16c
16r
=11
8.c
16A
16A
16G
8A
=12
16e
8d
16c
8A
16c
16r
*M5/8
=13
8.c
16A
16A
16G
16A
32r
32A
16.A
32A
*M2/4
=14
4e
16e
16r
8d
=15
16.c
32A
8A
4r
=16
8.e
16B
8d
8d
=17
8.c
16A
16A
16G
16A
16r
=18
8e
16.c
32A
8A
8r
=19
8.c
16A
8A
16A
16r
=20
8e
16.c
32A
8A
8r
=21
8.c
16A
16A
16G
16A
16r
=22
8.d
16e
8d
8d
=23
8.c
16A
16A
16G
16A
=24
8.d
16e
8d
8d
=25
8.c
16A
16A
16G
8A
=26
8.c
16c
8c
8c
=27
8.c
16A
16A
16G
8A
=28
8.c
16c
8c
8c
=29
8.c
16A
16A
16G
8A
=30
16A
16d
8d
8A
16c
16r
=31
8.c
16A
16A
16G
16A
16r
=32
16d
16d
8d
8A
16c
16r
*M3/4
=33
8.c
16A
8A
8G
8A
16r
16A
=34
8A
8r
8A
8r
4r
==
*-
!!!CNT: Choctaw
!!!TXO: Choctaw
!!!OCY: United States
!!!OCL: Frances Densmore
!!!YOR: Frances Densmore, "Choctaw Music"
!!!YOR: Bulletin 136, page 168, No. 51 [First rendition]
!!!PPR: Smithsonian Institution, Bureau of American Ethnology
!!!PPR: Government Printing Office
!!!PDT: 1943
!!!PPP: Washington, DC, United States of America
!!!YEC: Electronic Copyright 2000 David Huron
!!!YER: August 2000
!!!YEN: United States of America
!!!ENC: David Huron
!!!RDT: August 29, 2000
!!!EEV: Release 1.0
!!!AIN: vox
